icons/svg/icons8/comedy.svg

<svg width="26" height="26" viewBox="0 0 26 26" fill="none" xmlns="http://www.w3.org/2000/svg">
<path d="M12.998 0.195007C4.13305 0.195007 2.12305 2.97601 2.12305 4.07001C2.12305 23.27 11.396 24.918 12.976 24.918C14.552 24.918 23.828 23.132 23.828 4.07001C23.827 3.02901 21.863 0.195007 12.998 0.195007ZM12.624 19.809C9.06405 19.809 7.17505 15.188 7.17505 15.188C7.17505 15.188 10.155 17.216 12.624 17.216C15.094 17.216 18.072 15.188 18.072 15.188C18.072 15.188 16.183 19.809 12.624 19.809ZM17.557 11.5C15.464 11.414 14.107 9.39501 14.107 9.39501C14.107 9.39501 16.088 8.90901 17.605 8.92201C19.38 8.93801 20.802 9.50001 20.802 9.50001C20.802 9.50001 19.077 11.563 17.557 11.5ZM5.19805 9.50001C5.19805 9.50001 6.62005 8.93701 8.39505 8.92201C9.91205 8.90801 11.893 9.39501 11.893 9.39501C11.893 9.39501 10.536 11.415 8.44305 11.5C6.92305 11.563 5.19805 9.50001 5.19805 9.50001Z" fill="#333333"/>
</svg>

<?xml version="1.0" encoding="utf-8"?>
<!-- Generator: Adobe Illustrator 15.0.0, SVG Export Plug-In . SVG Version: 6.00 Build 0)  -->
<!DOCTYPE svg PUBLIC "-//W3C//DTD SVG 1.1//EN" "http://www.w3.org/Graphics/SVG/1.1/DTD/svg11.dtd">
<svg version="1.1" id="Layer_1" xmlns="http://www.w3.org/2000/svg" xmlns:xlink="http://www.w3.org/1999/xlink" x="0px" y="0px"
	 width="26px" height="26px" viewBox="0 0 26 26" enable-background="new 0 0 26 26" xml:space="preserve">
<rect fill="none" width="26" height="26"/>
<path fill="#333333" d="M12.998,0.195c-8.865,0-10.875,2.781-10.875,3.875c0,19.2,9.273,20.848,10.853,20.848
	c1.576,0,10.852-1.786,10.852-20.848C23.827,3.029,21.863,0.195,12.998,0.195z M12.624,19.809c-3.56,0-5.449-4.621-5.449-4.621
	s2.98,2.028,5.449,2.028c2.47,0,5.448-2.028,5.448-2.028S16.183,19.809,12.624,19.809z M17.557,11.5
	c-2.093-0.086-3.45-2.105-3.45-2.105s1.981-0.486,3.498-0.473C19.38,8.938,20.802,9.5,20.802,9.5S19.077,11.563,17.557,11.5z
	 M5.198,9.5c0,0,1.422-0.563,3.197-0.578c1.517-0.014,3.498,0.473,3.498,0.473s-1.357,2.02-3.45,2.105
	C6.923,11.563,5.198,9.5,5.198,9.5z"/>
</svg>
